X:1
T:"Dancing On The Green"  (hornpipe)  1735
T:"Dancing On The Green"  (hornpipe)  1735
T:By Maestro Michael Balfe
C:By Maestro Michael Balfe
L:1/8
M:4/4
K:C
V:1 treble 
V:1
 BEA |SOSOOO .!fermata!PMTuCMe>^fe>^c f>dB>^G | A>B^c>A B>^GE>^C | D>E^F>^G A>B^c>A | %4
 (3B^cB (3A^G^F E2 E2 | e>^fe>^c f>dB>^G | A>B^c>A B>^GE>^C | D>^FA>^c d>c (3BA^G | B2 A2 A2 z2 :: %9
 A>^GA>B ^c>^Bc>d | e2 (3(e^f^g) a>e^c>e | a>^g^f>e d>^cB>A | (3B^cB (3A^G^F E2 (ED) | %13
 ^C>AE>A B>AE>A | ^F>AD>A d>B^G>B | A>^fe>d ^c>BA>^G | B2 A2 A2 z2 :| %17

